2 Export/Icons/Brands/Flipboard.svg

<svg xmlns="http://www.w3.org/2000/svg" xmlns:xlink="http://www.w3.org/1999/xlink" width="24" height="24" viewBox="0 0 24 24">
  <defs>
    <path id="flipboard-a" d="M3 3v18h18V3H3zm14.4 7.2h-3.6v3.6h-3.6v3.6H6.6V6.6h10.8v3.6z"/>
  </defs>
  <g fill="none" fill-rule="evenodd">
    <polygon points="0 0 24 0 24 24 0 24"/>
    <mask id="flipboard-b" fill="#fff">
      <use xlink:href="#flipboard-a"/>
    </mask>
    <use fill="#000" xlink:href="#flipboard-a"/>
    <g fill="#000" mask="url(#flipboard-b)">
      <rect width="24" height="24"/>
    </g>
  </g>
</svg>

<svg xmlns="http://www.w3.org/2000/svg" xmlns:xlink="http://www.w3.org/1999/xlink" width="24" height="24" viewBox="0 0 24 24">
  <defs>
    <path id="flipboard-a" d="M3,3 L3,21 L21,21 L21,3 L3,3 Z M17.4,10.2 L13.8,10.2 L13.8,13.8 L10.2,13.8 L10.2,17.4 L6.6,17.4 L6.6,6.6 L17.4,6.6 L17.4,10.2 Z"/>
  </defs>
  <g fill="none" fill-rule="evenodd">
    <polygon points="0 0 24 0 24 24 0 24"/>
    <mask id="flipboard-b" fill="#fff">
      <use xlink:href="#flipboard-a"/>
    </mask>
    <use fill="#000" xlink:href="#flipboard-a"/>
    <g fill="#000" mask="url(#flipboard-b)">
      <rect width="24" height="24"/>
    </g>
  </g>
</svg>
